X: 12276
T: Fairy Dance, The
R: reel
M: 4/4
K: Dmajor
a2af b4|g2ge a3a|ffff gggg|edef d4|
aaaf bb2b|ggge A4|f2f2 g2g2|edef d4||

